pages/startups/make-the-app-your-users-will-love.svg

<?xml version="1.0" encoding="UTF-8"?><svg width="240px" height="367px" viewBox="0 0 240 367" version="1.1" xmlns="http://www.w3.org/2000/svg" xmlns:xlink="http://www.w3.org/1999/xlink"><g id="Page-1" stroke="none" stroke-width="1" fill="none" fill-rule="evenodd"><g id="make-the-app-your-users-will-love"><g id="Group" transform="translate(7.717042, 7.717042)"><polygon id="Shape" fill="#E7ECED" points="69.8392283 266.237942 69.8392283 285.530547 0.38585209 285.530547 69.8392283 208.360129 69.8392283 239.228296"></polygon><polygon id="Shape" fill="#E7ECED" points="154.726688 208.360129 224.180064 285.530547 154.726688 285.530547 154.726688 266.237942 154.726688 239.228296"></polygon><path d="M112.282958,81.0289389 C125.094791,81.0289389 135.434084,91.3682315 135.434084,104.180064 C135.434084,116.991897 125.094791,127.33119 112.282958,127.33119 C99.4711254,127.33119 89.1318328,116.991897 89.1318328,104.180064 C89.1318328,91.3682315 99.4711254,81.0289389 112.282958,81.0289389 Z" id="Shape" fill="#737779"></path><path d="M185.594855,88.7459807 L185.594855,127.33119 L162.677556,127.33119 C162.368875,128.258006 161.984566,129.184823 161.59254,130.029068 L177.802958,146.239486 L150.48463,173.557814 L134.274212,157.355113 C133.429968,157.731704 132.503151,158.12373 131.576334,158.425466 L131.576334,181.350482 L92.9911254,181.350482 L92.9911254,158.425466 C92.0643087,158.12373 91.137492,157.732476 90.2893891,157.355113 L74.0828296,173.482186 L46.7645016,146.238714 L62.9710611,130.028296 C62.5867524,129.184051 62.1985852,128.257235 61.8937621,127.330418 L38.9710611,127.330418 L38.9710611,88.745209 L61.8922186,88.745209 C62.1978135,87.8183923 62.585209,86.8915756 62.9695177,86.0473312 L46.8424437,69.8376849 L74.0820579,42.5193569 L90.2886174,58.7220579 C91.1367203,58.3454662 92.063537,57.9534405 92.9903537,57.6517042 L92.9903537,34.7266881 L131.575563,34.7266881 L131.575563,57.6517042 C132.502379,57.9534405 133.429196,58.3446945 134.273441,58.7220579 L150.483859,42.5193569 L177.802186,69.8376849 L161.591768,86.0481029 C161.983794,86.8923473 162.368103,87.819164 162.676785,88.7459807 L185.594855,88.7459807 L185.594855,88.7459807 Z M135.434084,104.180064 C135.434084,91.3682315 125.094791,81.0289389 112.282958,81.0289389 C99.4711254,81.0289389 89.1318328,91.3682315 89.1318328,104.180064 C89.1318328,116.991897 99.4711254,127.33119 112.282958,127.33119 C125.094791,127.33119 135.434084,116.991897 135.434084,104.180064 Z" id="Shape" fill="#AFB6BB"></path><path d="M220.321543,108.038585 C220.321543,152.637685 193.311897,190.921158 154.726688,207.433312 L154.726688,208.360129 L154.726688,239.228296 L69.8392283,239.228296 L69.8392283,208.360129 L69.8392283,207.433312 C31.2540193,190.921929 4.24437299,152.637685 4.24437299,108.038585 C4.24437299,48.3819936 52.6302251,-2.1933152e-14 112.282958,-2.1933152e-14 C171.93955,0 220.321543,48.3819936 220.321543,108.038585 Z M185.594855,127.33119 L185.594855,88.7459807 L162.677556,88.7459807 C162.368875,87.819164 161.984566,86.8923473 161.59254,86.0481029 L177.802958,69.8376849 L150.48463,42.5193569 L134.274212,58.7220579 C133.429968,58.3454662 132.503151,57.9534405 131.576334,57.6517042 L131.576334,34.7266881 L92.9911254,34.7266881 L92.9911254,57.6517042 C92.0643087,57.9534405 91.137492,58.3446945 90.2893891,58.7220579 L74.0828296,42.5193569 L46.8432154,69.8376849 L62.9702894,86.0481029 C62.5859807,86.8923473 62.1978135,87.819164 61.8929904,88.7459807 L38.9710611,88.7459807 L38.9710611,127.33119 L61.8922186,127.33119 C62.1978135,128.258006 62.585209,129.184823 62.9695177,130.029068 L46.7629582,146.239486 L74.0812862,173.482958 L90.2878457,157.355884 C91.1359486,157.732476 92.0627653,158.124502 92.989582,158.426238 L92.989582,181.350482 L131.574791,181.350482 L131.574791,158.425466 C132.501608,158.12373 133.428424,157.732476 134.272669,157.355113 L150.483087,173.557814 L177.801415,146.239486 L161.590997,130.029068 C161.983023,129.184823 162.367331,128.258006 162.676013,127.33119 L185.594855,127.33119 L185.594855,127.33119 Z" id="Shape" fill="#FFD248"></path><polygon id="Shape" fill="#AFB6BB" points="154.726688 285.530547 154.726688 297.106109 139.292605 297.106109 85.2733119 297.106109 69.8392283 297.106109 69.8392283 285.530547 69.8392283 266.237942 154.726688 266.237942"></polygon><rect id="Rectangle-path" fill="#E7ECED" x="69.8392283" y="239.228296" width="84.8874598" height="27.0096463"></rect><rect id="Rectangle-path" fill="#546A79" x="85.2733119" y="297.106109" width="54.0192926" height="38.585209"></rect></g><g id="Group" transform="translate(0.000000, 0.000000)" fill="#231F20"><path d="M87.242701,186.669839 L92.9903537,180.95074 L92.9903537,189.067524 C92.9903537,193.329646 96.4452733,196.784566 100.707395,196.784566 L139.292605,196.784566 C143.554727,196.784566 147.009646,193.329646 147.009646,189.067524 L147.009646,181.000129 L152.745723,186.733119 C155.76,189.746624 160.644887,189.74508 163.658392,186.732347 L190.97672,159.414019 C193.990225,156.400514 193.990225,151.514084 190.97672,148.499807 L185.242186,142.765273 L193.311897,142.765273 C197.574019,142.765273 201.028939,139.310354 201.028939,135.048232 L201.028939,96.4630225 C201.028939,92.201672 197.574019,88.7459807 193.311897,88.7459807 L185.242186,88.7459807 L190.97672,83.0114469 C193.990225,79.9979421 193.990225,75.1115113 190.97672,72.0980064 L163.658392,44.7796785 C160.644887,41.7684887 155.76,41.7646302 152.745723,44.7789068 L147.009646,50.5118971 L147.009646,42.4437299 C147.009646,38.1823794 143.554727,34.7266881 139.292605,34.7266881 L100.707395,34.7266881 C96.4452733,34.7266881 92.9903537,38.1823794 92.9903537,42.4437299 L92.9903537,50.5126688 L87.2550482,44.778135 C85.8073312,43.3311897 83.8448875,42.5185852 81.7990997,42.5185852 L81.792926,42.5185852 C79.7448232,42.5201286 77.780836,43.3365916 76.3346624,44.7866238 L49.0950482,72.1049518 C46.0938907,75.1138264 46.0915756,79.9832797 49.0888746,82.9960129 L54.8079743,88.7444373 L46.6881029,88.7444373 C42.4259807,88.7444373 38.9710611,92.2001286 38.9710611,96.4614791 L38.9710611,135.046688 C38.9710611,139.30881 42.4259807,142.76373 46.6881029,142.76373 L54.7570418,142.76373 L49.0232797,148.499035 C47.574791,149.947524 46.7621865,151.913055 46.7637299,153.961158 C46.7652733,156.00926 47.5809646,157.972476 49.0309968,159.419421 L76.3493248,186.662894 C79.3597428,189.665595 84.2299678,189.66791 87.242701,186.669839 Z M65.4011576,153.948039 L76.1448232,143.202058 C78.4205788,140.926302 79.0441158,137.476785 77.7106109,134.547395 C77.3679743,133.794984 77.115627,133.169904 76.9396785,132.634341 C75.8971061,129.469582 72.9414791,127.33119 69.6092605,127.33119 L54.4051447,127.33119 L54.4051447,104.180064 L69.6092605,104.180064 C72.9414791,104.180064 75.8971061,102.041672 76.9396785,98.8769132 C77.115627,98.3413505 77.3679743,97.7154984 77.7106109,96.9638585 C79.0418006,94.0406431 78.4228939,90.5996141 76.1579421,88.3230868 L65.4513183,77.561672 L81.8075884,61.1575563 L92.5489389,71.8973633 C94.8061736,74.1545981 98.2217363,74.7897106 101.13955,73.4909325 C101.716785,73.2347267 102.460707,72.9136977 103.093505,72.7076527 C106.272154,71.6735691 108.424437,68.7109968 108.424437,65.368746 L108.424437,50.1607717 L131.575563,50.1607717 L131.575563,65.368746 C131.575563,68.7109968 133.727846,71.6735691 136.906495,72.7076527 C137.545466,72.9160129 138.277814,73.2331833 138.845016,73.4855305 C141.763601,74.7881672 145.184566,74.1576849 147.446431,71.8965916 L158.199357,61.1482958 L174.605788,77.5547267 L163.85209,88.3084244 C161.5609,90.5996141 160.94508,94.0769132 162.308682,97.014791 C162.619678,97.6846302 162.884373,98.3382637 163.072669,98.9031511 C164.122958,102.054791 167.072412,104.180064 170.393826,104.180064 L185.594855,104.180064 L185.594855,127.33119 L170.394598,127.33119 C167.073183,127.33119 164.12373,129.456463 163.073441,132.608103 C162.885145,133.17299 162.621222,133.826624 162.309453,134.496463 C160.94508,137.435113 161.561672,140.91164 163.852862,143.20283 L174.606559,153.956527 L158.199357,170.362958 L147.445659,159.614662 C145.184566,157.354341 141.765145,156.723087 138.844244,158.025723 C138.277042,158.278071 137.544695,158.595241 136.905723,158.803601 C133.727074,159.837685 131.574791,162.800257 131.574791,166.142508 L131.574791,181.350482 L108.423666,181.350482 L108.423666,166.142508 C108.423666,162.800257 106.271383,159.837685 103.092733,158.803601 C102.459936,158.597556 101.716013,158.276527 101.138778,158.020322 C98.2271383,156.723859 94.8192926,157.354341 92.5612862,159.602315 L81.8037299,170.306624 L65.4011576,153.948039 Z" id="Shape"></path><path d="M120,142.765273 C137.020707,142.765273 150.868167,128.917814 150.868167,111.897106 C150.868167,94.8763987 137.020707,81.0289389 120,81.0289389 C102.979293,81.0289389 89.1318328,94.8763987 89.1318328,111.897106 C89.1318328,128.917814 102.979293,142.765273 120,142.765273 Z M120,96.4630225 C128.510354,96.4630225 135.434084,103.386752 135.434084,111.897106 C135.434084,120.40746 128.510354,127.33119 120,127.33119 C111.489646,127.33119 104.565916,120.40746 104.565916,111.897106 C104.565916,103.386752 111.489646,96.4630225 120,96.4630225 Z" id="Shape"></path><path d="M237.633183,288.084887 L174.482315,217.917685 C212.004887,197.905852 235.755627,158.824437 235.755627,115.755627 C235.755627,51.9279743 183.827653,0 120,0 C56.1723473,0 4.24437299,51.9279743 4.24437299,115.755627 C4.24437299,158.824437 27.9958842,197.905852 65.5176849,217.917685 L2.36681672,288.084887 C0.327974277,290.350611 -0.186752412,293.602572 1.05337621,296.386881 C2.29350482,299.17119 5.05543408,300.96463 8.10289389,300.96463 L69.8392283,300.96463 L69.8392283,304.823151 C69.8392283,309.084502 73.2941479,312.540193 77.5562701,312.540193 L85.2733119,312.540193 L85.2733119,343.40836 C85.2733119,347.669711 88.7282315,351.125402 92.9903537,351.125402 L112.282958,351.125402 L112.282958,366.559486 L127.717042,366.559486 L127.717042,351.125402 L147.009646,351.125402 C151.271768,351.125402 154.726688,347.669711 154.726688,343.40836 L154.726688,312.540193 L162.44373,312.540193 C166.705852,312.540193 170.160772,309.084502 170.160772,304.823151 L170.160772,300.96463 L231.897106,300.96463 C234.944566,300.96463 237.706495,299.17119 238.946624,296.386881 C240.186752,293.603344 239.672026,290.350611 237.633183,288.084887 Z M85.2733119,254.662379 L154.726688,254.662379 L154.726688,266.237942 L85.2733119,266.237942 L85.2733119,254.662379 Z M19.6784566,115.755627 C19.6784566,60.4375563 64.682701,15.4340836 120,15.4340836 C175.317299,15.4340836 220.321543,60.4375563 220.321543,115.755627 C220.321543,155.99074 196.411833,192.220707 159.407846,208.055305 C156.567974,209.269968 154.726688,212.061222 154.726688,215.149582 L154.726688,239.228296 L85.2733119,239.228296 L85.2733119,215.150354 C85.2733119,212.061994 83.4320257,209.27074 80.5921543,208.056077 C43.5881672,192.220707 19.6784566,155.99074 19.6784566,115.755627 Z M25.4307395,285.530547 L69.8392283,236.187781 L69.8392283,285.530547 L25.4307395,285.530547 Z M139.292605,335.691318 L100.707395,335.691318 L100.707395,312.540193 L139.292605,312.540193 L139.292605,335.691318 Z M154.726688,297.106109 L85.2733119,297.106109 L85.2733119,281.672026 L154.726688,281.672026 L154.726688,297.106109 Z M170.160772,285.530547 L170.160772,236.187781 L214.56926,285.530547 L170.160772,285.530547 Z" id="Shape"></path></g></g></g></svg>

<svg width="240" height="367" viewBox="0 0 240 367" xmlns="http://www.w3.org/2000/svg"><g fill="none" fill-rule="evenodd"><path fill="#E7ECED" d="M77.556 273.955v19.293H8.103l69.453-77.17v30.867zM162.444 216.077l69.453 77.17h-69.453V246.946z"/><path d="M120 88.746c12.812 0 23.151 10.34 23.151 23.151 0 12.812-10.34 23.151-23.151 23.151-12.812 0-23.151-10.34-23.151-23.15 0-12.813 10.34-23.152 23.151-23.152z" fill="#737779"/><path d="M193.312 96.463v38.585h-22.917a26.082 26.082 0 0 1-1.085 2.698l16.21 16.21-27.318 27.319-16.21-16.203c-.845.377-1.772.769-2.699 1.07v22.926h-38.585v-22.925c-.927-.302-1.853-.693-2.702-1.07L81.8 181.198l-27.318-27.243 16.206-16.21a26.95 26.95 0 0 1-1.077-2.699H46.688V96.462H69.61c.306-.927.693-1.853 1.078-2.698l-16.128-16.21L81.8 50.237 98.006 66.44c.848-.376 1.775-.769 2.701-1.07V42.444h38.586v22.925c.926.301 1.853.693 2.697 1.07l16.21-16.203 27.32 27.319-16.211 16.21c.392.844.776 1.771 1.085 2.698h22.918zm-50.16 15.434c0-12.812-10.34-23.151-23.152-23.151-12.812 0-23.151 10.34-23.151 23.151 0 12.812 10.34 23.151 23.151 23.151 12.812 0 23.151-10.34 23.151-23.15z" fill="#AFB6BB"/><path d="M228.039 115.756c0 44.599-27.01 82.882-65.595 99.394V246.945H77.556V215.15c-38.585-16.511-65.595-54.795-65.595-99.394C11.961 56.099 60.347 7.717 120 7.717c59.657 0 108.039 48.382 108.039 108.039zm-34.727 19.292V96.463h-22.917a26.082 26.082 0 0 0-1.085-2.698l16.21-16.21-27.318-27.319-16.21 16.203c-.845-.376-1.772-.769-2.699-1.07V42.444h-38.585v22.925c-.927.301-1.853.693-2.702 1.07L81.8 50.236 54.56 77.555l16.127 16.21a26.95 26.95 0 0 0-1.077 2.698H46.688v38.585H69.61c.306.927.693 1.854 1.078 2.698l-16.207 16.21L81.798 181.2l16.207-16.127c.848.377 1.775.769 2.702 1.07v22.925h38.585v-22.925c.927-.302 1.853-.693 2.698-1.07l16.21 16.202 27.318-27.318-16.21-16.21c.392-.845.776-1.772 1.085-2.699h22.919z" fill="#FFD248"/><path fill="#AFB6BB" d="M162.444 293.248v11.575H77.556v-30.868h84.888z"/><path fill="#E7ECED" d="M77.556 246.945h84.887v27.01H77.556z"/><path fill="#546A79" d="M92.99 304.823h54.019v38.585H92.99z"/><g fill="#231F20"><path d="M87.243 186.67l5.747-5.72v8.118a7.717 7.717 0 0 0 7.717 7.717h38.586a7.717 7.717 0 0 0 7.717-7.717V181l5.736 5.733a7.717 7.717 0 0 0 10.912 0l27.319-27.319a7.718 7.718 0 0 0 0-10.914l-5.735-5.735h8.07a7.717 7.717 0 0 0 7.717-7.717V96.463a7.717 7.717 0 0 0-7.717-7.717h-8.07l5.735-5.735a7.717 7.717 0 0 0 0-10.913L163.658 44.78a7.718 7.718 0 0 0-10.912-.001l-5.736 5.733v-8.068a7.717 7.717 0 0 0-7.717-7.717h-38.586a7.717 7.717 0 0 0-7.717 7.717v8.069l-5.735-5.735a7.718 7.718 0 0 0-5.456-2.26h-.006a7.718 7.718 0 0 0-5.458 2.269l-27.24 27.318a7.716 7.716 0 0 0-.006 10.891l5.719 5.748h-8.12a7.717 7.717 0 0 0-7.717 7.717v38.586a7.717 7.717 0 0 0 7.717 7.717h8.069l-5.734 5.735a7.717 7.717 0 0 0 .008 10.92l27.318 27.244a7.717 7.717 0 0 0 10.894.007zM65.4 153.948l10.744-10.746a7.718 7.718 0 0 0 1.566-8.655 19.116 19.116 0 0 1-.771-1.913 7.718 7.718 0 0 0-7.33-5.303H54.404v-23.15H69.61a7.718 7.718 0 0 0 7.33-5.304c.177-.536.429-1.162.772-1.913a7.716 7.716 0 0 0-1.553-8.64L65.45 77.561l16.357-16.404 10.74 10.74a7.714 7.714 0 0 0 8.592 1.593c.577-.256 1.32-.577 1.954-.783a7.718 7.718 0 0 0 5.33-7.34V50.162h23.152v15.208a7.718 7.718 0 0 0 5.33 7.339c.64.208 1.372.525 1.939.778a7.717 7.717 0 0 0 8.601-1.59L158.2 61.149l16.407 16.407-10.754 10.753a7.717 7.717 0 0 0-1.543 8.707c.31.67.575 1.323.764 1.888a7.717 7.717 0 0 0 7.32 5.277h15.202v23.151h-15.2a7.717 7.717 0 0 0-7.322 5.277 18.381 18.381 0 0 1-.764 1.888 7.716 7.716 0 0 0 1.544 8.707l10.754 10.754-16.408 16.406-10.753-10.748a7.718 7.718 0 0 0-8.602-1.59c-.567.253-1.3.57-1.938.779a7.718 7.718 0 0 0-5.331 7.339v15.207h-23.151v-15.207a7.718 7.718 0 0 0-5.331-7.34c-.633-.205-1.377-.526-1.954-.783a7.712 7.712 0 0 0-8.578 1.582l-10.757 10.705L65.4 153.948z"/><path d="M120 142.765c17.02 0 30.868-13.847 30.868-30.868 0-17.02-13.847-30.868-30.868-30.868-17.02 0-30.868 13.847-30.868 30.868 0 17.02 13.847 30.868 30.868 30.868zm0-46.302c8.51 0 15.434 6.924 15.434 15.434 0 8.51-6.924 15.434-15.434 15.434-8.51 0-15.434-6.924-15.434-15.434 0-8.51 6.924-15.434 15.434-15.434z"/><path d="M237.633 288.085l-63.15-70.167a115.675 115.675 0 0 0 61.273-102.162C235.756 51.928 183.828 0 120 0S4.244 51.928 4.244 115.756c0 43.068 23.752 82.15 61.274 102.162L2.367 288.085a7.716 7.716 0 0 0 5.736 12.88h61.736v3.858a7.717 7.717 0 0 0 7.717 7.717h7.717v30.868a7.717 7.717 0 0 0 7.717 7.717h19.293v15.434h15.434v-15.434h19.293a7.717 7.717 0 0 0 7.717-7.717V312.54h7.717a7.717 7.717 0 0 0 7.717-7.717v-3.858h61.736a7.717 7.717 0 0 0 5.736-12.88zm-152.36-33.423h69.454v11.576H85.273v-11.576zM19.678 115.756C19.678 60.438 64.683 15.434 120 15.434s100.322 45.004 100.322 100.322c0 40.235-23.91 76.465-60.914 92.3a7.716 7.716 0 0 0-4.681 7.094v24.078H85.273V215.15a7.716 7.716 0 0 0-4.68-7.094 100.283 100.283 0 0 1-60.915-92.3zm5.753 169.775l44.408-49.343v49.343H25.431zm113.862 50.16h-38.586v-23.15h38.586v23.15zm15.434-38.585H85.273v-15.434h69.454v15.434zm15.434-11.575v-49.343l44.408 49.343h-44.408z"/></g></g></svg>
